X: 4
T: The Dublin
R: reel
M: 4/4
L: 1/8
K: Dmaj
|:(3gfe|dF F2 dfec|dF F2 AFEF|dF F2 dfed|cABG AFEF|dF F2 d2 (3gfe|dF F2 AFEF|dF F2 dfed|cABG A3f|||:eA A2 eAfA|eA A2 BAFA|eA A2 e2 (3gfe|dBcA BAFA|eA A2 eAfA|eA A2 BAFA|(3efe df ef (3gfe|dBcA BAFA|||:d3c dF F2|dedB AFEF|d2dc dfed|cABG AFEF|d3c dF F2|dedB AFEF|dcdf eaag|fdBc d2||


Tune 384	Setting 13211

